X:63
T:Winter Ducks
R:Jig
Z:Added by Alf Warnock, named by Charles de Lint
M:6/8
L:1/8
Q:3/8=120
K:G
D|GFG AGA|B2g gdB|GAB c2A|BGE EDE|
GFG AGA|B2g gdB|cBA  B/c/dB|AGF G2:|
d|gfg efg|eag fed|gfg efg|afd def|
gfe agf|gfe edB|cBA  B/c/dB|AGF G2:|
